source/img/bg-zigzag-line.svg

<svg enable-background="new 0 0 1150 23" height="23" viewBox="0 0 1150 23" width="1150" xmlns="http://www.w3.org/2000/svg"><path d="m1150 23c-9.017 0-13.728-4.589-17.514-8.276-3.412-3.323-5.877-5.724-11.234-5.724-5.358 0-7.823 2.401-11.235 5.724-3.786 3.688-8.497 8.276-17.514 8.276s-13.728-4.589-17.514-8.276c-3.412-3.323-5.877-5.724-11.234-5.724s-7.822 2.401-11.234 5.724c-3.786 3.688-8.497 8.276-17.514 8.276s-13.729-4.589-17.515-8.276c-3.412-3.323-5.877-5.724-11.235-5.724-5.357 0-7.822 2.401-11.234 5.724-3.787 3.687-8.498 8.276-17.514 8.276s-13.728-4.589-17.514-8.276c-3.412-3.323-5.877-5.724-11.234-5.724s-7.822 2.401-11.234 5.724c-3.787 3.687-8.499 8.276-17.515 8.276s-13.729-4.589-17.515-8.276c-3.412-3.323-5.877-5.724-11.234-5.724s-7.822 2.401-11.234 5.724c-3.787 3.687-8.499 8.276-17.515 8.276s-13.729-4.589-17.515-8.276c-3.412-3.323-5.877-5.724-11.235-5.724-5.355 0-7.82 2.4-11.231 5.723-3.786 3.688-8.497 8.277-17.512 8.277-9.017 0-13.729-4.589-17.515-8.276-3.412-3.323-5.877-5.724-11.235-5.724-5.356 0-7.821 2.401-11.232 5.723-3.786 3.688-8.497 8.277-17.513 8.277-9.017 0-13.729-4.589-17.514-8.277-3.41-3.322-5.875-5.723-11.233-5.723s-7.821 2.401-11.233 5.723c-3.785 3.688-8.497 8.277-17.514 8.277-9.016 0-13.727-4.589-17.512-8.276-3.411-3.323-5.875-5.724-11.233-5.724s-7.822 2.401-11.234 5.724c-3.786 3.687-8.497 8.276-17.514 8.276s-13.729-4.589-17.515-8.276c-3.412-3.323-5.877-5.724-11.236-5.724-5.357 0-7.822 2.401-11.234 5.724-3.786 3.687-8.497 8.276-17.514 8.276-9.016 0-13.728-4.589-17.514-8.276-3.411-3.323-5.876-5.724-11.234-5.724s-7.823 2.401-11.234 5.724c-3.786 3.687-8.497 8.276-17.514 8.276s-13.729-4.589-17.514-8.276c-3.411-3.323-5.877-5.724-11.234-5.724-5.358 0-7.823 2.401-11.235 5.724-3.787 3.687-8.499 8.276-17.515 8.276-9.017 0-13.729-4.589-17.516-8.276-3.412-3.323-5.877-5.724-11.237-5.724-5.358 0-7.823 2.401-11.235 5.724-3.786 3.687-8.498 8.276-17.515 8.276s-13.729-4.589-17.515-8.276c-3.412-3.323-5.877-5.724-11.236-5.724-5.358 0-7.823 2.401-11.235 5.724-3.786 3.687-8.498 8.276-17.515 8.276s-13.729-4.589-17.515-8.276c-3.413-3.323-5.878-5.724-11.236-5.724s-7.824 2.401-11.236 5.724c-3.786 3.687-8.499 8.276-17.516 8.276-9.018 0-13.729-4.589-17.516-8.276-3.412-3.323-5.878-5.724-11.237-5.724-5.357 0-7.822 2.401-11.234 5.724-3.785 3.687-8.497 8.276-17.513 8.276-9.017 0-13.729-4.589-17.515-8.276-3.412-3.323-5.877-5.724-11.235-5.724s-7.824 2.401-11.236 5.724c-3.786 3.687-8.498 8.276-17.515 8.276-9.018 0-13.73-4.589-17.517-8.276-3.412-3.323-5.877-5.724-11.237-5.724s-7.825 2.401-11.238 5.724c-3.787 3.687-8.5 8.276-17.517 8.276-9.018 0-13.73-4.589-17.517-8.276-3.413-3.323-5.879-5.724-11.239-5.724s-7.826 2.401-11.239 5.724c-3.785 3.687-8.498 8.276-17.516 8.276s-13.731-4.588-17.518-8.276c-3.414-3.323-5.88-5.724-11.241-5.724s-7.827 2.401-11.24 5.724c-3.787 3.687-8.5 8.276-17.519 8.276v-9c5.361 0 7.827-2.401 11.241-5.724 3.787-3.688 8.5-8.276 17.518-8.276s13.731 4.588 17.519 8.276c3.413 3.323 5.879 5.724 11.24 5.724 5.36 0 7.825-2.401 11.238-5.724 3.787-3.687 8.499-8.276 17.517-8.276s13.73 4.589 17.517 8.276c3.413 3.323 5.879 5.724 11.239 5.724s7.826-2.401 11.238-5.724c3.787-3.687 8.5-8.276 17.517-8.276s13.73 4.589 17.517 8.276c3.412 3.323 5.878 5.724 11.237 5.724 5.358 0 7.824-2.401 11.236-5.724 3.786-3.687 8.498-8.276 17.515-8.276s13.729 4.589 17.515 8.276c3.412 3.323 5.877 5.724 11.235 5.724 5.357 0 7.822-2.401 11.234-5.724 3.786-3.687 8.497-8.276 17.513-8.276 9.017 0 13.729 4.589 17.516 8.276 3.412 3.323 5.878 5.724 11.237 5.724s7.824-2.401 11.236-5.724c3.787-3.687 8.499-8.276 17.516-8.276s13.729 4.589 17.515 8.276c3.412 3.323 5.877 5.724 11.236 5.724s7.824-2.401 11.236-5.724c3.785-3.687 8.497-8.276 17.514-8.276s13.729 4.589 17.516 8.276c3.412 3.323 5.877 5.724 11.235 5.724s7.823-2.401 11.235-5.724c3.787-3.687 8.499-8.276 17.515-8.276 9.018 0 13.729 4.589 17.516 8.276 3.412 3.323 5.877 5.724 11.236 5.724 5.358 0 7.823-2.401 11.235-5.724 3.787-3.687 8.499-8.276 17.516-8.276 9.016 0 13.728 4.589 17.514 8.276 3.412 3.323 5.877 5.724 11.235 5.724 5.357 0 7.822-2.401 11.234-5.724 3.785-3.687 8.496-8.276 17.513-8.276 9.016 0 13.728 4.589 17.514 8.276 3.411 3.323 5.876 5.724 11.234 5.724 5.357 0 7.822-2.401 11.234-5.724 3.787-3.687 8.497-8.276 17.514-8.276 9.018 0 13.729 4.589 17.516 8.276 3.412 3.323 5.877 5.724 11.235 5.724 5.357 0 7.822-2.401 11.234-5.724 3.787-3.687 8.498-8.276 17.514-8.276s13.728 4.589 17.513 8.277c3.411 3.323 5.876 5.723 11.232 5.723 5.357 0 7.822-2.401 11.234-5.724 3.786-3.687 8.498-8.276 17.513-8.276s13.728 4.589 17.513 8.276c3.412 3.323 5.877 5.724 11.234 5.724 5.356 0 7.821-2.401 11.232-5.723 3.786-3.688 8.497-8.277 17.513-8.277 9.017 0 13.729 4.589 17.515 8.276 3.412 3.323 5.877 5.724 11.235 5.724 5.356 0 7.821-2.401 11.232-5.724 3.785-3.687 8.496-8.276 17.511-8.276 9.017 0 13.729 4.589 17.515 8.276 3.411 3.323 5.876 5.724 11.235 5.724s7.823-2.401 11.235-5.724c3.786-3.687 8.498-8.276 17.514-8.276 9.017 0 13.728 4.589 17.514 8.276 3.412 3.323 5.877 5.724 11.235 5.724s7.823-2.401 11.235-5.724c3.786-3.687 8.497-8.276 17.514-8.276s13.728 4.589 17.514 8.276c3.412 3.323 5.877 5.724 11.234 5.724s7.822-2.401 11.234-5.724c3.786-3.687 8.497-8.276 17.514-8.276s13.729 4.589 17.515 8.276c3.412 3.323 5.877 5.724 11.235 5.724 5.357 0 7.822-2.401 11.234-5.724 3.786-3.688 8.497-8.276 17.514-8.276s13.728 4.589 17.514 8.276c3.412 3.323 5.877 5.724 11.234 5.724s7.822-2.401 11.234-5.724c3.786-3.688 8.498-8.276 17.515-8.276s13.728 4.589 17.514 8.276c3.412 3.323 5.877 5.724 11.234 5.724z" fill="#e6e7e8"/></svg>

<svg version="1.1" id="Layer_2" xmlns="http://www.w3.org/2000/svg" xmlns:xlink="http://www.w3.org/1999/xlink" x="0px" y="0px" width="1150px" height="23px" viewBox="0 0 1150 23" enable-background="new 0 0 1150 23" xml:space="preserve">
  <g>
    <path fill="#E6E7E8" d="M1150,23c-9.017,0-13.728-4.589-17.514-8.276c-3.412-3.323-5.877-5.724-11.234-5.724 c-5.358,0-7.823,2.401-11.235,5.724c-3.786,3.688-8.497,8.276-17.514,8.276s-13.728-4.589-17.514-8.276 c-3.412-3.323-5.877-5.724-11.234-5.724s-7.822,2.401-11.234,5.724c-3.786,3.688-8.497,8.276-17.514,8.276 s-13.729-4.589-17.515-8.276C1014.08,11.401,1011.615,9,1006.257,9c-5.357,0-7.822,2.401-11.234,5.724 C991.236,18.411,986.525,23,977.509,23s-13.728-4.589-17.514-8.276C956.583,11.401,954.118,9,948.761,9s-7.822,2.401-11.234,5.724 C933.74,18.411,929.028,23,920.012,23s-13.729-4.589-17.515-8.276C899.085,11.401,896.62,9,891.263,9s-7.822,2.401-11.234,5.724 C876.242,18.411,871.53,23,862.514,23s-13.729-4.589-17.515-8.276C841.587,11.401,839.122,9,833.764,9 c-5.355,0-7.82,2.4-11.231,5.723C818.747,18.411,814.036,23,805.021,23c-9.017,0-13.729-4.589-17.515-8.276 C784.094,11.401,781.629,9,776.271,9c-5.356,0-7.821,2.401-11.232,5.723C761.253,18.411,756.542,23,747.526,23 c-9.017,0-13.729-4.589-17.514-8.277C726.602,11.401,724.137,9,718.779,9s-7.821,2.401-11.233,5.723 C703.761,18.411,699.049,23,690.032,23c-9.016,0-13.727-4.589-17.512-8.276C669.109,11.401,666.645,9,661.287,9 s-7.822,2.401-11.234,5.724C646.267,18.411,641.556,23,632.539,23s-13.729-4.589-17.515-8.276C611.612,11.401,609.147,9,603.788,9 c-5.357,0-7.822,2.401-11.234,5.724C588.768,18.411,584.057,23,575.04,23c-9.016,0-13.728-4.589-17.514-8.276 C554.115,11.401,551.65,9,546.292,9s-7.823,2.401-11.234,5.724C531.272,18.411,526.561,23,517.544,23 c-9.017,0-13.729-4.589-17.514-8.276C496.619,11.401,494.153,9,488.796,9c-5.358,0-7.823,2.401-11.235,5.724 C473.774,18.411,469.062,23,460.046,23c-9.017,0-13.729-4.589-17.516-8.276C439.118,11.401,436.653,9,431.293,9 c-5.358,0-7.823,2.401-11.235,5.724C416.272,18.411,411.56,23,402.543,23s-13.729-4.589-17.515-8.276 C381.616,11.401,379.151,9,373.792,9c-5.358,0-7.823,2.401-11.235,5.724C358.771,18.411,354.059,23,345.042,23 s-13.729-4.589-17.515-8.276C324.114,11.401,321.649,9,316.291,9s-7.824,2.401-11.236,5.724C301.269,18.411,296.556,23,287.539,23 c-9.018,0-13.729-4.589-17.516-8.276C266.611,11.401,264.145,9,258.786,9c-5.357,0-7.822,2.401-11.234,5.724 C243.767,18.411,239.055,23,230.039,23c-9.017,0-13.729-4.589-17.515-8.276C209.112,11.401,206.647,9,201.289,9 s-7.824,2.401-11.236,5.724C186.267,18.411,181.555,23,172.538,23c-9.018,0-13.73-4.589-17.517-8.276 C151.609,11.401,149.144,9,143.784,9c-5.36,0-7.825,2.401-11.238,5.724c-3.787,3.687-8.5,8.276-17.517,8.276 c-9.018,0-13.73-4.589-17.517-8.276C94.099,11.401,91.633,9,86.273,9s-7.826,2.401-11.239,5.724C71.249,18.411,66.536,23,57.518,23 C48.5,23,43.787,18.412,40,14.724C36.586,11.401,34.12,9,28.759,9s-7.827,2.401-11.24,5.724C13.732,18.411,9.019,23,0,23v-9 c5.361,0,7.827-2.401,11.241-5.724C15.028,4.588,19.741,0,28.759,0s13.731,4.588,17.519,8.276C49.691,11.599,52.157,14,57.518,14 c5.36,0,7.825-2.401,11.238-5.724C72.543,4.589,77.255,0,86.273,0s13.73,4.589,17.517,8.276c3.413,3.323,5.879,5.724,11.239,5.724 s7.826-2.401,11.238-5.724C130.054,4.589,134.767,0,143.784,0s13.73,4.589,17.517,8.276c3.412,3.323,5.878,5.724,11.237,5.724 c5.358,0,7.824-2.401,11.236-5.724C187.56,4.589,192.272,0,201.289,0c9.017,0,13.729,4.589,17.515,8.276 c3.412,3.323,5.877,5.724,11.235,5.724c5.357,0,7.822-2.401,11.234-5.724C245.059,4.589,249.77,0,258.786,0 c9.017,0,13.729,4.589,17.516,8.276C279.714,11.599,282.18,14,287.539,14c5.359,0,7.824-2.401,11.236-5.724 C302.562,4.589,307.274,0,316.291,0c9.017,0,13.729,4.589,17.515,8.276c3.412,3.323,5.877,5.724,11.236,5.724 c5.359,0,7.824-2.401,11.236-5.724C360.063,4.589,364.775,0,373.792,0c9.017,0,13.729,4.589,17.516,8.276 C394.72,11.599,397.185,14,402.543,14s7.823-2.401,11.235-5.724C417.565,4.589,422.277,0,431.293,0 c9.018,0,13.729,4.589,17.516,8.276c3.412,3.323,5.877,5.724,11.236,5.724c5.358,0,7.823-2.401,11.235-5.724 C475.067,4.589,479.779,0,488.796,0c9.016,0,13.728,4.589,17.514,8.276c3.412,3.323,5.877,5.724,11.235,5.724 c5.357,0,7.822-2.401,11.234-5.724C532.564,4.589,537.275,0,546.292,0c9.016,0,13.728,4.589,17.514,8.276 C567.217,11.599,569.682,14,575.04,14c5.357,0,7.822-2.401,11.234-5.724C590.061,4.589,594.771,0,603.788,0 c9.018,0,13.729,4.589,17.516,8.276c3.412,3.323,5.877,5.724,11.235,5.724c5.357,0,7.822-2.401,11.234-5.724 C647.56,4.589,652.271,0,661.287,0s13.728,4.589,17.513,8.277C682.211,11.6,684.676,14,690.032,14 c5.357,0,7.822-2.401,11.234-5.724C705.052,4.589,709.764,0,718.779,0s13.728,4.589,17.513,8.276 c3.412,3.323,5.877,5.724,11.234,5.724c5.356,0,7.821-2.401,11.232-5.723C762.544,4.589,767.255,0,776.271,0 c9.017,0,13.729,4.589,17.515,8.276c3.412,3.323,5.877,5.724,11.235,5.724c5.356,0,7.821-2.401,11.232-5.724 C820.038,4.589,824.749,0,833.764,0c9.017,0,13.729,4.589,17.515,8.276C854.69,11.599,857.155,14,862.514,14 s7.823-2.401,11.235-5.724C877.535,4.589,882.247,0,891.263,0c9.017,0,13.728,4.589,17.514,8.276 c3.412,3.323,5.877,5.724,11.235,5.724s7.823-2.401,11.235-5.724C935.033,4.589,939.744,0,948.761,0s13.728,4.589,17.514,8.276 c3.412,3.323,5.877,5.724,11.234,5.724s7.822-2.401,11.234-5.724C992.529,4.589,997.24,0,1006.257,0s13.729,4.589,17.515,8.276 c3.412,3.323,5.877,5.724,11.235,5.724c5.357,0,7.822-2.401,11.234-5.724c3.786-3.688,8.497-8.276,17.514-8.276 s13.728,4.589,17.514,8.276c3.412,3.323,5.877,5.724,11.234,5.724s7.822-2.401,11.234-5.724c3.786-3.688,8.498-8.276,17.515-8.276 s13.728,4.589,17.514,8.276C1142.178,11.599,1144.643,14,1150,14V23z"/>
  </g>
</svg>
